X:534
T: DENK ICH ALLEWEIL
N: E0518
O: Europa, Mitteleuropa, Deutschland, Franken
R: Liebes - Lied
M: 3/8
L: 1/16
K: G
GA | BBB2GA | BBB2
d2 | d3cB2 | A4
Ac | c2c2Ac | B2B2
GB | A3GA2 | B2d2
Ac | c2c2Ac | B2B2
GB | A3GA2 | G4

@@@ Tune index: 4184
